assets/images/login-connectors/metamask.svg

<svg width="100" height="100" viewBox="0 0 100 100" fill="none" xmlns="http://www.w3.org/2000/svg">
<rect width="100" height="100" rx="50" fill="white"/>
<path fill-rule="evenodd" clip-rule="evenodd" d="M63.6747 73.5233L55.2927 75.7476V72.8385L54.6089 72.1548H49.8186V77.9708H54.9508L61.2806 75.2337L63.6758 73.5233H63.6747Z" fill="#CDBDB2"/>
<path fill-rule="evenodd" clip-rule="evenodd" d="M36.3165 73.5233L44.5276 75.7476V72.8385L45.2113 72.1548H50.0017V77.9708H44.8695L38.5397 75.2337L36.3165 73.5233Z" fill="#CDBDB2"/>
<path fill-rule="evenodd" clip-rule="evenodd" d="M54.6136 67.1929L55.2974 72.839L54.4427 72.1542H45.5457L44.5201 72.8379L45.2038 67.1918L46.5724 66.3372L53.416 66.5081L54.6126 67.1918L54.6136 67.1929Z" fill="#393939"/>
<path fill-rule="evenodd" clip-rule="evenodd" d="M59.2344 29.0419L55.1288 38.6226L53.2464 66.508H46.5747L44.5225 38.6226L40.7588 29.0419H59.2344Z" fill="#F89C35"/>
<path fill-rule="evenodd" clip-rule="evenodd" d="M77.2096 50.0819L82 63.9402L70.0241 63.2564H62.3268V57.2685L62.6687 44.9507L64.3791 46.3192L77.2096 50.0819Z" fill="#F89D35"/>
<path fill-rule="evenodd" clip-rule="evenodd" d="M68.1311 51.6235L54.104 51.9653L55.6424 59.1499L62.3141 57.4395L68.1311 51.6224V51.6235Z" fill="#D87C30"/>
<path fill-rule="evenodd" clip-rule="evenodd" d="M68.1311 51.7939L62.3151 57.2681V62.7422L68.1311 51.7939Z" fill="#EA8D3A"/>
<path fill-rule="evenodd" clip-rule="evenodd" d="M62.3293 57.4404L55.4857 59.1508L53.2614 66.5073L54.8019 67.363L62.3293 62.9145V57.4404Z" fill="#F89D35"/>
<path fill-rule="evenodd" clip-rule="evenodd" d="M62.3083 62.9116L63.6758 73.519L54.6089 67.1892L62.3083 62.9116Z" fill="#EB8F35"/>
<path fill-rule="evenodd" clip-rule="evenodd" d="M54.1045 51.9658L53.2488 66.5068L55.8159 59.0654L54.1045 51.9658Z" fill="#EA8E3A"/>
<path fill-rule="evenodd" clip-rule="evenodd" d="M70.1897 63.0836L62.3204 62.9116L63.6879 73.519L70.1897 63.0836Z" fill="#D87C30"/>
<path fill-rule="evenodd" clip-rule="evenodd" d="M78.2363 78.1385L63.6953 73.518L70.1961 63.0836L82 63.9383L78.2363 78.1385Z" fill="#EB8F35"/>
<path fill-rule="evenodd" clip-rule="evenodd" d="M55.1296 38.6212L62.485 44.7801L68.1311 51.6227L54.104 52.1366L55.1296 38.6212Z" fill="#E8821E"/>
<path fill-rule="evenodd" clip-rule="evenodd" d="M63.6747 73.5214L54.6079 67.1915L55.2927 72.6656V75.7456L61.4515 74.547L63.6758 73.5214H63.6747ZM36.3042 73.5214L45.1991 67.1915L44.5154 72.6656V75.7456L38.3565 74.547L36.3042 73.5214Z" fill="#DFCEC3"/>
<path fill-rule="evenodd" clip-rule="evenodd" d="M57.8757 55.0449L55.9943 58.9796L62.666 57.2692L57.8757 55.0449Z" fill="#393939"/>
<path fill-rule="evenodd" clip-rule="evenodd" d="M78.3989 21L55.1319 38.622L59.0666 29.0413L78.3979 21.0021L78.3989 21Z" fill="#E88F35"/>
<path fill-rule="evenodd" clip-rule="evenodd" d="M78.4033 21L81.4822 30.4088L79.7718 40.6743L80.9694 41.358L79.2579 42.8975L80.6265 44.0951L78.7451 45.8065L79.9427 46.8321L77.2057 50.254L64.373 46.3193C58.1002 41.301 55.0212 38.736 55.1352 38.621C55.2492 38.507 63.0055 32.633 78.4033 21Z" fill="#8E5A30"/>
<path fill-rule="evenodd" clip-rule="evenodd" d="M22.7905 50.0819L18.0001 63.9402L29.976 63.2564H37.6733V57.2685L37.3315 44.9507L35.6211 46.3192L22.7905 50.0819Z" fill="#F89D35"/>
<path fill-rule="evenodd" clip-rule="evenodd" d="M31.8559 51.6238L45.8831 51.9657L44.3446 59.1502L37.6729 57.4398L31.8559 51.6228V51.6238Z" fill="#D87C30"/>
<path fill-rule="evenodd" clip-rule="evenodd" d="M31.8574 51.7943L37.6733 57.2684V62.7425L31.8574 51.7943Z" fill="#EA8D3A"/>
<path fill-rule="evenodd" clip-rule="evenodd" d="M37.6828 57.4404L44.5265 59.1508L46.7507 66.5073L45.2102 67.363L37.6828 62.9145V57.4404Z" fill="#F89D35"/>
<path fill-rule="evenodd" clip-rule="evenodd" d="M37.695 62.9116L36.3275 73.519L45.2224 67.3601L37.695 62.9116Z" fill="#EB8F35"/>
<path fill-rule="evenodd" clip-rule="evenodd" d="M45.895 51.9658L46.7507 66.5068L44.1836 59.0654L45.895 51.9658Z" fill="#EA8E3A"/>
<path fill-rule="evenodd" clip-rule="evenodd" d="M29.8041 63.0836L37.6733 62.9116L36.3059 73.519L29.8041 63.0836Z" fill="#D87C30"/>
<path fill-rule="evenodd" clip-rule="evenodd" d="M21.7857 78.1385L36.3267 73.518L29.8259 63.0836L18.022 63.9383L21.7857 78.1385Z" fill="#EB8F35"/>
<path fill-rule="evenodd" clip-rule="evenodd" d="M44.8574 38.6212L37.502 44.7801L31.8559 51.6227L45.8831 52.1366L44.8574 38.6212Z" fill="#E8821E"/>
<path fill-rule="evenodd" clip-rule="evenodd" d="M42.1367 55.0449L44.0181 58.9796L37.3464 57.2692L42.1367 55.0449Z" fill="#393939"/>
<path fill-rule="evenodd" clip-rule="evenodd" d="M21.6065 21L44.8735 38.622L40.9389 29.0413L21.6076 21.0021L21.6065 21Z" fill="#E88F35"/>
<path fill-rule="evenodd" clip-rule="evenodd" d="M21.6024 21L18.5235 30.4088L20.2339 40.6743L19.0363 41.358L20.7478 42.8975L19.3792 44.0951L21.2606 45.8065L20.063 46.8321L22.8 50.254L35.6327 46.3193C41.9055 41.301 44.9844 38.736 44.8705 38.621C44.7565 38.507 37.0002 32.633 21.6024 21Z" fill="#8E5A30"/>
</svg>

<svg xmlns="http://www.w3.org/2000/svg" fill="none" viewBox="0 0 100 100">
  <circle cx="50" cy="50" r="50" fill="#fff"/>
  <path fill="#CDBDB2" fill-rule="evenodd" d="m63.675 73.523-8.382 2.225v-2.91l-.684-.683h-4.79v5.816h5.132l6.33-2.737 2.395-1.71h-.001Z" clip-rule="evenodd"/>
  <path fill="#CDBDB2" fill-rule="evenodd" d="m36.316 73.523 8.212 2.225v-2.91l.683-.683h4.79v5.816H44.87l-6.33-2.737-2.224-1.71Z" clip-rule="evenodd"/>
  <path fill="#393939" fill-rule="evenodd" d="m54.614 67.193.683 5.646-.854-.685h-8.897l-1.026.684.684-5.646 1.368-.855 6.844.171 1.197.684Z" clip-rule="evenodd"/>
  <path fill="#F89C35" fill-rule="evenodd" d="m59.234 29.042-4.105 9.58-1.883 27.886h-6.671l-2.053-27.885-3.763-9.581h18.475Z" clip-rule="evenodd"/>
  <path fill="#F89D35" fill-rule="evenodd" d="M77.21 50.082 82 63.94l-11.976-.684h-7.697V57.27l.342-12.318 1.71 1.368 12.83 3.763Z" clip-rule="evenodd"/>
  <path fill="#D87C30" fill-rule="evenodd" d="m68.131 51.623-14.027.342 1.538 7.185 6.672-1.71 5.817-5.818v.002Z" clip-rule="evenodd"/>
  <path fill="#EA8D3A" fill-rule="evenodd" d="m68.131 51.794-5.816 5.474v5.474l5.816-10.948Z" clip-rule="evenodd"/>
  <path fill="#F89D35" fill-rule="evenodd" d="m62.33 57.44-6.844 1.71-2.225 7.357 1.54.856 7.528-4.449V57.44Z" clip-rule="evenodd"/>
  <path fill="#EB8F35" fill-rule="evenodd" d="m62.308 62.912 1.368 10.607-9.067-6.33 7.7-4.277Z" clip-rule="evenodd"/>
  <path fill="#EA8E3A" fill-rule="evenodd" d="m54.105 51.966-.856 14.54 2.567-7.44-1.712-7.1Z" clip-rule="evenodd"/>
  <path fill="#D87C30" fill-rule="evenodd" d="m70.19 63.084-7.87-.172 1.368 10.607 6.502-10.435Z" clip-rule="evenodd"/>
  <path fill="#EB8F35" fill-rule="evenodd" d="m78.236 78.138-14.54-4.62 6.5-10.434L82 63.938l-3.764 14.2Z" clip-rule="evenodd"/>
  <path fill="#E8821E" fill-rule="evenodd" d="m55.13 38.621 7.355 6.16 5.646 6.842-14.027.514L55.13 38.62Z" clip-rule="evenodd"/>
  <path fill="#DFCEC3" fill-rule="evenodd" d="m63.675 73.521-9.067-6.33.685 5.475v3.08l6.159-1.199 2.224-1.026h-.001Zm-27.37 0 8.894-6.33-.684 5.475v3.08l-6.159-1.199-2.052-1.026Z" clip-rule="evenodd"/>
  <path fill="#393939" fill-rule="evenodd" d="m57.876 55.045-1.882 3.935 6.672-1.71-4.79-2.225Z" clip-rule="evenodd"/>
  <path fill="#E88F35" fill-rule="evenodd" d="M78.399 21 55.132 38.622l3.935-9.58 19.33-8.04L78.4 21Z" clip-rule="evenodd"/>
  <path fill="#8E5A30" fill-rule="evenodd" d="m78.403 21 3.08 9.409-1.711 10.265 1.197.684-1.711 1.54 1.368 1.197-1.88 1.712 1.197 1.025-2.737 3.422-12.833-3.935c-6.273-5.018-9.352-7.583-9.238-7.698.114-.114 7.87-5.988 23.268-17.621Z" clip-rule="evenodd"/>
  <path fill="#F89D35" fill-rule="evenodd" d="M22.79 50.082 18 63.94l11.976-.684h7.697V57.27l-.342-12.318-1.71 1.368-12.83 3.763Z" clip-rule="evenodd"/>
  <path fill="#D87C30" fill-rule="evenodd" d="m31.856 51.624 14.027.342-1.538 7.184-6.672-1.71-5.817-5.817Z" clip-rule="evenodd"/>
  <path fill="#EA8D3A" fill-rule="evenodd" d="m31.857 51.794 5.816 5.474v5.474l-5.816-10.948Z" clip-rule="evenodd"/>
  <path fill="#F89D35" fill-rule="evenodd" d="m37.683 57.44 6.843 1.71 2.225 7.357-1.54.856-7.528-4.449V57.44Z" clip-rule="evenodd"/>
  <path fill="#EB8F35" fill-rule="evenodd" d="m37.695 62.912-1.367 10.607 8.894-6.159-7.527-4.448Z" clip-rule="evenodd"/>
  <path fill="#EA8E3A" fill-rule="evenodd" d="m45.895 51.966.856 14.54-2.567-7.44 1.711-7.1Z" clip-rule="evenodd"/>
  <path fill="#D87C30" fill-rule="evenodd" d="m29.804 63.084 7.87-.172-1.368 10.607-6.502-10.435Z" clip-rule="evenodd"/>
  <path fill="#EB8F35" fill-rule="evenodd" d="m21.786 78.138 14.54-4.62-6.5-10.434-11.804.854 3.764 14.2Z" clip-rule="evenodd"/>
  <path fill="#E8821E" fill-rule="evenodd" d="m44.857 38.621-7.355 6.16-5.646 6.842 14.027.514-1.026-13.516Z" clip-rule="evenodd"/>
  <path fill="#393939" fill-rule="evenodd" d="m42.137 55.045 1.881 3.935-6.672-1.71 4.79-2.225Z" clip-rule="evenodd"/>
  <path fill="#E88F35" fill-rule="evenodd" d="m21.607 21 23.267 17.622-3.935-9.58-19.331-8.04-.002-.002Z" clip-rule="evenodd"/>
  <path fill="#8E5A30" fill-rule="evenodd" d="m21.602 21-3.079 9.409 1.71 10.265-1.197.684 1.712 1.54-1.369 1.197 1.882 1.712-1.198 1.025 2.737 3.422 12.833-3.935c6.273-5.018 9.351-7.583 9.237-7.698C44.758 38.507 37 32.633 21.602 21Z" clip-rule="evenodd"/>
</svg>
